X: 1
T: Bog Man, The
M: 4/4
L: 1/8
R: reel
K: Ddor
|:fedf eage|dged cAGE|F3E FGAB|cA (3AAA cAG2|
fedf eage|dged cAGE|F3E FGAB|cAGE EDD2:|
|:Ad (3ddd bdad|eaag gedg|ec (3ccc AcGc|ABcA cAGc|
Ad (3ddd bdad|eaag gedg|eaag efed|cAGE EDD2:|
